svgs/sharp-light/house-circle-exclamation.svg

<svg xmlns="http://www.w3.org/2000/svg" viewBox="0 0 640 512"><!--! Font Awesome Pro 6.6.0 by @fontawesome - https://fontawesome.com License - https://fontawesome.com/license (Commercial License) Copyright 2024 Fonticons, Inc. --><path d="M288 2.7L298.6 12 502.7 192.1c-2.2-.1-4.5-.1-6.7-.1c-12.8 0-25.3 1.4-37.3 4L288 45.3 96 214.7 96 480l112 0 0-176 0-16 16 0 115.2 0c-5.2 10.1-9.4 20.8-12.6 32L240 320l0 160 16 0 104.2 0c10 12.1 21.7 22.9 34.6 32L80 512l-16 0 0-16 0-253L26.6 276 5.4 252l272-240L288 2.7zM608 368a112 112 0 1 0 -224 0 112 112 0 1 0 224 0zm-256 0a144 144 0 1 1 288 0 144 144 0 1 1 -288 0zm160 80l-32 0 0-32 32 0 0 32zm0-160l0 16 0 80 0 16-32 0 0-16 0-80 0-16 32 0z"/></svg>

<svg xmlns="http://www.w3.org/2000/svg" viewBox="0 0 640 512"><!--! Font Awesome Pro 6.4.0 by @fontawesome - https://fontawesome.com License - https://fontawesome.com/license (Commercial License) Copyright 2023 Fonticons, Inc. --><path d="M288 2.7L298.6 12 502.7 192.1c-2.2-.1-4.5-.1-6.7-.1c-12.8 0-25.3 1.4-37.3 4L288 45.3 96 214.7V480H208V304 288h16H339.2c-5.2 10.1-9.4 20.8-12.6 32H240V480l16 0H360.2c10 12.1 21.7 22.9 34.6 32H80 64V496 243L26.6 276 5.4 252l272-240L288 2.7zM608 368a112 112 0 1 0 -224 0 112 112 0 1 0 224 0zm-256 0a144 144 0 1 1 288 0 144 144 0 1 1 -288 0zm160 80H480V416h32v32zm0-160v16 80 16H480V384 304 288h32z"/></svg>
